X:1
T:Basic Blues
T:Basic Blues
T:Based Off of "Hard Rock Blues"
T:SlickFromMars
C:SlickFromMars
%%score { 1 | 2 }
L:1/8
M:4/4
K:Bb
V:1 treble nm="Piano" snm="Pno."
V:2 bass 
V:1
 c2 c2 ec B2 | c4 z4 | c2 c2 ec B2 | c4 z4 | f2 f2 ec e2 | f4 z4 | c2 c2 ec B2 | c4 z4 | %8
 ef g2 g2 g2- | g2 z2 f2 f2 | f4 z4 | c2 c2 ec B2 | c8 |] %13
V:2
 [C,E,G,]8- | [C,E,G,]4 z4 | [C,E,G,]8- | [C,E,G,]4 z4 | [F,A,C]8- | [F,A,C]4 z4 | [C,E,G,]8- | %7
 [C,E,G,]4 z4 | [E,G,B,][F,A,C] [G,B,D]6- | [G,B,D]2 z2 [F,A,C]4- | [F,A,C]4 z4 | [C,E,G,]8- | %12
 [C,E,G,]8 |] %13

